src/assets/tokens/fUSDC.svg

<svg width="80" height="80" viewBox="0 0 80 80" fill="none" xmlns="http://www.w3.org/2000/svg">
<g clip-path="url(#clip0_1563_1377)">
<circle cx="40" cy="40" r="40" fill="white"/>
<path fill-rule="evenodd" clip-rule="evenodd" d="M25.6494 5.35452C30.1991 3.46996 35.0754 2.5 40 2.5C44.9246 2.5 49.8009 3.46997 54.3506 5.35452C58.9003 7.23907 63.0343 10.0013 66.5165 13.4835C69.9987 16.9657 72.7609 21.0997 74.6455 25.6494C76.2104 29.4275 77.1447 33.4308 77.4166 37.5H79.9218C79.6464 33.1022 78.6458 28.7742 76.9552 24.6927C74.945 19.8396 71.9986 15.4301 68.2843 11.7157C64.5699 8.00139 60.1604 5.05501 55.3073 3.04482C50.4543 1.03463 45.2529 0 40 0C34.7471 0 29.5457 1.03463 24.6927 3.04482C19.8396 5.055 15.4301 8.00138 11.7157 11.7157C8.00139 15.4301 5.05501 19.8396 3.04482 24.6927C1.03463 29.5457 0 34.7471 0 40C0 45.2529 1.03463 50.4543 3.04482 55.3073C5.05501 60.1604 8.00138 64.5699 11.7157 68.2843C15.4301 71.9986 19.8396 74.945 24.6927 76.9552C29.5457 78.9654 34.7471 80 40 80C45.2529 80 50.4543 78.9654 55.3073 76.9552C60.1604 74.945 64.5699 71.9986 68.2843 68.2843C71.9986 64.5699 74.945 60.1604 76.9552 55.3073C78.9654 50.4543 80 45.2529 80 40H77.5C77.5 44.9246 76.53 49.8009 74.6455 54.3506C72.7609 58.9003 69.9987 63.0343 66.5165 66.5165C63.0343 69.9987 58.9003 72.7609 54.3506 74.6455C49.8009 76.53 44.9246 77.5 40 77.5C35.0754 77.5 30.1991 76.53 25.6494 74.6455C21.0997 72.7609 16.9657 69.9987 13.4835 66.5165C10.0013 63.0343 7.23907 58.9003 5.35452 54.3506C3.46997 49.8009 2.5 44.9246 2.5 40C2.5 35.0754 3.46997 30.1991 5.35452 25.6494C7.23907 21.0997 10.0013 16.9657 13.4835 13.4835C16.9657 10.0013 21.0997 7.23907 25.6494 5.35452ZM72.5 40H75C74.9999 46.2678 73.3166 52.4205 70.126 57.8155C66.9353 63.2107 62.3542 67.6501 56.8614 70.6698C51.3686 73.6894 45.1657 75.1786 38.9007 74.9818C32.6357 74.7849 26.5385 72.9091 21.2461 69.5505C15.9538 66.1919 11.6605 61.4736 8.81482 55.8887C5.96916 50.3038 4.67553 44.0571 5.06911 37.8014C5.46269 31.5456 7.52902 25.5103 11.0522 20.3261C14.5754 15.1419 19.4262 10.9989 25.0978 8.33008L26.1622 10.5921C20.8958 13.0703 16.3915 16.9174 13.1199 21.7313C9.84838 26.5453 7.92964 32.1494 7.56418 37.9583C7.19871 43.7672 8.39993 49.5677 11.0423 54.7537C13.6847 59.9397 17.6714 64.321 22.5857 67.4397C27.5 70.5584 33.1617 72.3002 38.9792 72.483C44.7967 72.6658 50.5566 71.283 55.657 68.479C60.7575 65.675 65.0113 61.5527 67.9742 56.5429C70.9368 51.5333 72.4999 45.8201 72.5 40ZM14.4312 29.8767C16.1364 25.5699 18.9018 21.7636 22.4709 18.811L20.8773 16.8848C16.9838 20.1058 13.967 24.2581 12.1068 28.9564C10.2466 33.6547 9.60328 38.7468 10.2366 43.7602C10.8699 48.7735 12.7594 53.5456 15.7295 57.6337C18.6997 61.7218 22.6544 64.9934 27.2267 67.145C31.7989 69.2965 36.8406 70.2583 41.8838 69.941C46.927 69.6237 51.8083 68.0376 56.0748 65.33C60.3414 62.6224 63.8549 58.8809 66.2892 54.4528C68.7236 50.0246 70 45.0533 70 40.0002H67.5C67.5 44.6322 66.33 49.1893 64.0985 53.2484C61.867 57.3075 58.6463 60.7372 54.7353 63.2192C50.8243 65.7012 46.3497 67.1551 41.7268 67.4459C37.1038 67.7368 32.4823 66.8552 28.2911 64.8829C24.0999 62.9107 20.4747 59.9117 17.7521 56.1643C15.0294 52.4168 13.2974 48.0424 12.7169 43.4468C12.1363 38.8513 12.726 34.1835 14.4312 29.8767Z" fill="#2775CA"/>
<path fill-rule="evenodd" clip-rule="evenodd" d="M40 65C53.8542 65 65 53.8544 65 40C65 26.1456 53.8542 15 40 15C26.1458 15 15 26.1456 15 40C15 53.8544 26.1458 65 40 65ZM46.8752 43.9584C46.8752 40.3128 44.6877 39.0628 40.3127 38.5419C37.1877 38.1253 36.5627 37.2919 36.5627 35.8334C36.5627 34.375 37.6044 33.4378 39.6877 33.4378C41.5627 33.4378 42.6044 34.0628 43.1252 35.6253C43.1769 35.7803 43.2799 35.9097 43.4087 36.0007C43.5394 36.0931 43.6969 36.1459 43.8544 36.1459H45.5208C45.9377 36.1459 46.2502 35.8334 46.2502 35.4169V35.3128C45.8333 33.0209 43.9584 31.2503 41.5627 31.0419V28.5419C41.5627 28.1253 41.2502 27.8128 40.7294 27.7084H39.1669C38.7502 27.7084 38.4377 28.0209 38.3334 28.5419V30.9378C35.2084 31.3544 33.2294 33.4378 33.2294 36.0419C33.2294 39.4794 35.3127 40.8334 39.6877 41.3544C42.6044 41.8753 43.5419 42.5003 43.5419 44.1669C43.5419 45.8337 42.0834 46.9794 40.1044 46.9794C37.3959 46.9794 36.4584 45.8334 36.1459 44.2709C36.0419 43.8544 35.7294 43.6459 35.4169 43.6459H33.6459C33.2294 43.6459 32.9169 43.9584 32.9169 44.3753V44.4794C33.3334 47.0834 35.0002 48.9584 38.4377 49.4794V51.9794C38.4377 52.3959 38.7502 52.7084 39.2709 52.8128H40.8334C41.2502 52.8128 41.5627 52.5003 41.6669 51.9794V49.4794C44.7919 48.9584 46.8752 46.7709 46.8752 43.9584ZM25.4158 34.8956C22.3947 42.9166 26.5614 51.9791 34.6864 54.8956C34.9989 55.1041 35.3114 55.5206 35.3114 55.8331V57.2916C35.3114 57.4997 35.3114 57.6041 35.2072 57.7081C35.1343 58.0005 34.9071 58.1903 34.6341 58.2056C34.5181 58.212 34.3939 58.187 34.2697 58.1247C28.4364 56.2497 23.9572 51.7706 22.0822 45.9372C18.9572 36.0416 24.3739 25.5206 34.2697 22.3956C34.3739 22.2916 34.5822 22.2916 34.6864 22.2916C35.1033 22.3956 35.3114 22.7081 35.3114 23.1247V24.5831C35.3114 24.9319 35.218 25.1874 35.0311 25.3806C34.939 25.4758 34.8241 25.556 34.6864 25.6247C30.4158 27.1872 26.9783 30.5206 25.4158 34.8956ZM44.7908 22.8122C44.8947 22.3956 45.3114 22.1872 45.7283 22.3956C51.4572 24.2706 56.0408 28.7497 57.9158 34.6872C61.0408 44.5831 55.6239 55.1041 45.7283 58.2291C45.6239 58.3331 45.4158 58.3331 45.3114 58.3331C44.8947 58.2291 44.6864 57.9166 44.6864 57.4997V56.0416C44.6864 55.5206 44.8947 55.2081 45.3114 54.9997C49.5822 53.4372 53.0197 50.1041 54.5822 45.7291C57.6033 37.7081 53.4364 28.6456 45.3114 25.7291C44.9989 25.5206 44.6864 25.1041 44.6864 24.6872V23.2291C44.6864 23.0206 44.6864 22.9166 44.7908 22.8122Z" fill="#2775CA"/>
</g>
<defs>
<clipPath id="clip0_1563_1377">
<rect width="80" height="80" fill="white"/>
</clipPath>
</defs>
</svg>

<svg fill="none" height="80" width="80" xmlns="http://www.w3.org/2000/svg"><clipPath id="a"><path d="M0 0h80v80H0z"/></clipPath><g clip-path="url(#a)"><circle cx="40" cy="40" fill="#fff" r="40"/><g clip-rule="evenodd" fill="#2775ca" fill-rule="evenodd"><path d="M25.65 5.355A37.5 37.5 0 0 1 77.416 37.5h2.505A40 40 0 1 0 80 40h-2.5A37.5 37.5 0 1 1 25.65 5.355zM72.5 40H75A35 35 0 1 1 25.098 8.33l1.064 2.262A32.501 32.501 0 1 0 72.5 40zM14.431 29.877a27.5 27.5 0 0 1 8.04-11.066l-1.594-1.926A30 30 0 1 0 70 40h-2.5a27.5 27.5 0 1 1-53.069-10.123z"/><path d="M40 65a24.94 24.94 0 0 0 25-25 24.94 24.94 0 0 0-25-25 24.94 24.94 0 0 0-25 25 24.94 24.94 0 0 0 25 25zm6.875-21.042c0-3.645-2.187-4.895-6.562-5.416-3.125-.417-3.75-1.25-3.75-2.709 0-1.458 1.041-2.395 3.125-2.395 1.875 0 2.916.625 3.437 2.187a.78.78 0 0 0 .73.52h1.666c.417 0 .73-.312.73-.728v-.104a5.204 5.204 0 0 0-4.688-4.271v-2.5c0-.417-.313-.73-.834-.834h-1.562c-.417 0-.73.313-.834.834v2.396c-3.125.416-5.104 2.5-5.104 5.104 0 3.437 2.084 4.791 6.459 5.312 2.916.521 3.854 1.146 3.854 2.813s-1.459 2.812-3.438 2.812c-2.708 0-3.646-1.146-3.958-2.708-.104-.417-.417-.625-.73-.625h-1.77a.712.712 0 0 0-.73.73v.103c.417 2.604 2.084 4.48 5.522 5v2.5c0 .417.312.73.833.834h1.562c.417 0 .73-.313.834-.834v-2.5c3.125-.52 5.208-2.708 5.208-5.52zm-21.46-9.062c-3.02 8.02 1.146 17.083 9.271 20 .313.208.625.625.625.937v1.459c0 .208 0 .312-.104.416a.628.628 0 0 1-.573.498.722.722 0 0 1-.364-.081c-5.834-1.875-10.313-6.354-12.188-12.188-3.125-9.895 2.292-20.416 12.188-23.541.104-.104.312-.104.416-.104.417.104.625.416.625.833v1.458c0 .349-.093.604-.28.798a1.247 1.247 0 0 1-.345.244c-4.27 1.562-7.708 4.896-9.27 9.27zm19.376-12.084c.104-.416.52-.625.937-.416 5.73 1.875 10.313 6.354 12.188 12.291 3.125 9.896-2.292 20.417-12.188 23.542-.104.104-.312.104-.417.104-.416-.104-.625-.416-.625-.833v-1.458c0-.521.209-.834.625-1.042 4.271-1.563 7.709-4.896 9.271-9.27 3.021-8.022-1.146-17.084-9.27-20-.313-.21-.626-.626-.626-1.043V23.23c0-.208 0-.312.105-.417z"/></g></g></svg>
